alura/assets/api/cursos/blender-modelagem-cabeca-personagem.svg

<svg xmlns="http://www.w3.org/2000/svg" id="Camada_1" x="0" y="0" version="1.1" viewBox="0 0 49 46" xml:space="preserve"><style>.st2{fill:#444}</style><path fill="#fcc34f" d="M43.2 25.6l.4 3.8L5.5 43.3l-.1-7.9.2-4.6 38-13.8-.5 3.2z"/><path fill="#fdcf72" d="M43.3 11.1l-.3 6.7L5.8 31.4l-.1-8.6.1-3.8L43.3 5.3z"/><path d="M23.6 45.6H5.5c-.7 0-1.2-.6-1.2-1.2V1.6C4.3.9 4.9.4 5.5.4h38c.7 0 1.2.6 1.2 1.2v27.8c0 .7-.6 1.2-1.2 1.2s-1.2-.6-1.2-1.2V2.9H6.7v40.2h16.9c.7 0 1.2.6 1.2 1.2s-.5 1.3-1.2 1.3z" class="st2"/><path d="M37.8 22.7v-.2l-.1-.1-10.8-11.9s-.1 0-.1-.1h-.6L12.1 19c-.1.1-.2.1-.2.2v.3l3.3 14.1v.2s0 .1.1.1c0 0 .1 0 .1.1h.2l14.6 2.2h.3l.1-.1 7-13V23c.2-.2.2-.2.2-.3zm-2.4-1.3L29.1 19l-1.6-6.3 7.9 8.7zm-1.1.8h-4.9l-.2-1.9 5.1 1.9zm-14.2 1.6l1.8 2.2-4.6 5 2.8-7.2zm-.4-1.7L15 20h5.8l-1.1 2.1zm1.4 1.2h3.3l-1.8 1.9-1.5-1.9zm-.2-1.1L22 20h5.3l-2 2.2h-4.4zm7.3-1.5l.1 1.5h-1.5l1.4-1.5zm-1.9-8.4l1.7 6.6h-5.3l3.6-6.6zm-1.3.1L21.4 19h-7.1L25 12.4zm-11.9 8l6.1 2.6-3.5 8.7-2.6-11.3zm3.6 12.8l5.8-6.3L29 35l-12.3-1.8zm6.6-7.1l2.6-2.8h2.6l1 10.7-6.2-7.9zm7.3 7.8l-1.1-10.7h6.8l-5.7 10.7z" class="st2"/></svg>

<?xml version="1.0" encoding="utf-8"?>
<!-- Generator: Adobe Illustrator 24.0.0, SVG Export Plug-In . SVG Version: 6.00 Build 0)  -->
<svg version="1.1" id="Camada_1" xmlns="http://www.w3.org/2000/svg" xmlns:xlink="http://www.w3.org/1999/xlink" x="0px" y="0px"
	 viewBox="0 0 49 46" style="enable-background:new 0 0 49 46;" xml:space="preserve">
<style type="text/css">
	.st0{fill:#FCC34F;}
	.st1{fill:#FDCF72;}
	.st2{fill:#444444;}
</style>
<title>Group 25</title>
<g>
	<polygon class="st0" points="43.2,25.6 43.6,29.4 5.5,43.3 5.4,35.4 5.6,30.8 43.6,17 43.1,20.2 	"/>
</g>
<g>
	<polygon class="st1" points="43.3,11.1 43,17.8 5.8,31.4 5.7,22.8 5.8,19 43.3,5.3 	"/>
</g>
<g>
	<path class="st2" d="M23.6,45.6H5.5c-0.7,0-1.2-0.6-1.2-1.2V1.6c0-0.7,0.6-1.2,1.2-1.2h38c0.7,0,1.2,0.6,1.2,1.2v27.8
		c0,0.7-0.6,1.2-1.2,1.2s-1.2-0.6-1.2-1.2V2.9H6.7v40.2h16.9c0.7,0,1.2,0.6,1.2,1.2S24.3,45.6,23.6,45.6z"/>
</g>
<g>
	<g>
		<g>
			<path class="st2" d="M37.8,22.7L37.8,22.7L37.8,22.7c0-0.1,0-0.1,0-0.1v-0.1c0,0,0,0-0.1-0.1l0,0l0,0L26.9,10.5
				c0,0-0.1,0-0.1-0.1l0,0l0,0l0,0h-0.1c0,0,0,0-0.1,0h-0.1h-0.1l0,0l0,0h-0.1c0,0,0,0-0.1,0L12.1,19l0,0c-0.1,0.1-0.2,0.1-0.2,0.2
				s0,0.2,0,0.3l0,0l3.3,14.1l0,0c0,0,0,0,0,0.1c0,0,0,0,0,0.1c0,0,0,0.1,0.1,0.1l0,0l0,0c0,0,0.1,0,0.1,0.1c0,0,0,0,0.1,0l0,0h0.1
				l0,0l14.6,2.2h0.1l0,0l0,0l0,0c0,0,0,0,0.1,0l0,0h0.1l0,0l0,0l0,0l0,0l0.1-0.1l0,0l0,0l7-13l0,0l0,0l0,0c0,0,0,0,0-0.1
				C37.8,22.8,37.8,22.8,37.8,22.7L37.8,22.7z M35.4,21.4L29.1,19l-1.6-6.3L35.4,21.4z M34.3,22.2h-4.9l-0.2-1.9L34.3,22.2z
				 M20.1,23.8l1.8,2.2l-4.6,5L20.1,23.8z M19.7,22.1L15,20h5.8L19.7,22.1z M21.1,23.3h3.3l-1.8,1.9L21.1,23.3z M20.9,22.2L22,20
				h5.3l-2,2.2H20.9L20.9,22.2z M28.2,20.7l0.1,1.5h-1.5L28.2,20.7z M26.3,12.3l1.7,6.6h-5.3L26.3,12.3z M25,12.4L21.4,19h-7.1
				L25,12.4z M13.1,20.4l6.1,2.6l-3.5,8.7L13.1,20.4z M16.7,33.2l5.8-6.3L29,35L16.7,33.2z M23.3,26.1l2.6-2.8h2.6l1,10.7L23.3,26.1
				z M30.6,33.9l-1.1-10.7h6.8L30.6,33.9z"/>
		</g>
	</g>
</g>
</svg>
